X: 10873
T: The SHEPHERD'S SON
O: Very old Scottish air
Q: "Not too fast."
%R: march, reel
B: W. Hamilton "Universal Tune-Book" Vol. 1 Glasgow 1844 p.88 #3
S: http://imslp.org/wiki/Hamilton's_Universal_Tune-Book_(Various)
Z: 2016 John Chambers <jc:trillian.mit.edu>
M: C
L: 1/8
K: A
%%slurgraces yes
%%graceslurs yes
% - - - - - - - - - - - - - - - - - - - - - - - - -
E |\
EAAA A>AAA | B>ABc d2zd |\
eccA {c}B>ABc | A>FEA {c}B2zc |\
A>BAF FEEE | e>dcd e2ze |\
e<cB>A A>BcF | E>FAc {B}A2z |]
% - - - - - - - - - - - - - - - - - - - - - - - - -

%%sep 1 1 500
%%sep 1 1 500

